modules/hawcons-stroke/icons/icon-12-cloud-moon-lightning.svg

<?xml version="1.0" encoding="UTF-8" standalone="no"?>
<svg width="32px" height="32px" viewBox="0 0 32 32" version="1.1" xmlns="http://www.w3.org/2000/svg" xmlns:xlink="http://www.w3.org/1999/xlink" xmlns:sketch="http://www.bohemiancoding.com/sketch/ns">
    <!-- Generator: Sketch 3.0.3 (7891) - http://www.bohemiancoding.com/sketch -->
    <title>icon 12 cloud moon lightning</title>
    <desc>Created with Sketch.</desc>
    <defs></defs>
    <g id="Page-1" stroke="none" stroke-width="1" fill="none" fill-rule="evenodd" sketch:type="MSPage">
        <g id="icon-12-cloud-moon-lightning" sketch:type="MSArtboardGroup" fill="#929292">
            <path d="M17.0666911,22 L19.5999756,22 L13.5,28.1000061 L14.9786564,24 L12.4000244,24 L14.6999512,18 L18.5999756,18 L17.0666911,22 L17.0666911,22 Z M19,24 L24.9971835,24 C27.207878,24 29,22.2046438 29,20 C29,18.1225574 27.70144,16.5472159 25.9581226,16.1164746 L25.9581226,16.1164746 C25.9857342,15.9149284 26,15.7091302 26,15.5 C26,13.0147185 23.9852815,11 21.5,11 C20.2744589,11 19.1633432,11.489913 18.3518132,12.2845787 C17.3608691,10.3354059 15.336385,9 13,9 C9.68629134,9 7,11.6862913 7,15 C7,15.3764904 7.03467626,15.7448817 7.10100919,16.1021544 L7.10100919,16.1021544 C5.32460991,16.5117359 4,18.1046097 4,20 C4,22.209139 5.79793835,24 8.00281647,24 L11.375,24 L11.375,24 L14,17 L20,17 L18.5,21 L22,21 L19,24 L19,24 L19,24 Z M13.5454545,25 L7.99943992,25 C5.23249418,25 3,22.7614237 3,20 C3,17.9491311 4.23965876,16.1816085 6.01189661,15.4115388 C6.00400207,15.275367 6,15.1381509 6,15 C6,11.1340066 9.13400656,8 13,8 C14.1294153,8 15.1963581,8.2674761 16.1409385,8.74253831 C16.0487309,8.34324334 16,7.92731253 16,7.5 C16,4.92337167 17.7718077,2.76057144 20.1635112,2.16351119 C20.5148964,2.07579207 20.879662,2.02186946 21.2541551,2.00539634 C21.089541,2.47303895 21,2.97606276 21,3.5 C21,5.9852815 23.0147185,8 25.5,8 C26.0239372,8 26.5269611,7.91045904 26.9946037,7.74584491 C26.9781305,8.12033801 26.9242079,8.48510364 26.8364888,8.83648881 C26.5780984,9.87154909 26.0264591,10.7905085 25.2749382,11.5 L25.2749382,11.5 C26.3178749,12.4846096 26.9758595,13.8726337 26.9993494,15.4145295 C28.7676457,16.1852931 30,17.9483386 30,20 C30,22.7558048 27.7616745,25 25.0005601,25 L18,25 L11,32 L13.5454545,25 L13.5454545,25 L13.5454545,25 Z M24.4770358,10.8745734 C25.046841,10.3715085 25.4882557,9.72637364 25.7458449,8.99460366 C25.6643448,8.99818867 25.5823839,9 25.5,9 C22.4624337,9 20,6.53756627 20,3.5 C20,3.41761609 20.0018113,3.33565523 20.0053963,3.25415509 C18.2547894,3.87038343 17,5.53865574 17,7.5 C17,8.29950141 17.2084979,9.05030549 17.5740867,9.70100529 C17.959598,10.0340748 18.3083804,10.408504 18.6135384,10.8173973 C19.4525719,10.299097 20.441357,10 21.5,10 C22.5969862,10 23.6189624,10.3211555 24.4770358,10.8745734 L24.4770358,10.8745734 L24.4770358,10.8745734 Z" id="cloud-moon-lightning" sketch:type="MSShapeGroup"></path>
        </g>
    </g>
</svg>

<svg width="32" height="32" viewBox="0 0 32 32" xmlns="http://www.w3.org/2000/svg"><path d="M17.067 22H19.6l-6.1 6.1 1.479-4.1H12.4l2.3-6h3.9l-1.533 4zM19 24h5.997A4.004 4.004 0 0 0 29 20a4.006 4.006 0 0 0-3.042-3.884 4.5 4.5 0 0 0-7.606-3.832 6 6 0 0 0-11.25 3.818H7.1A4.006 4.006 0 0 0 4 20c0 2.21 1.798 4 4.003 4h3.372L14 17h6l-1.5 4H22l-3 3zm-5.455 1H8C5.232 25 3 22.761 3 20c0-2.05 1.24-3.818 3.012-4.588A7 7 0 0 1 16.14 8.743a5.502 5.502 0 0 1 5.113-6.737 4.5 4.5 0 0 0 5.74 5.74 5.495 5.495 0 0 1-1.72 3.754A5.484 5.484 0 0 1 27 15.415C28.768 16.185 30 17.948 30 20c0 2.756-2.238 5-5 5h-7l-7 7 2.545-7zm10.932-14.125a4.506 4.506 0 0 0 1.269-1.88 5.5 5.5 0 0 1-5.74-5.74A4.502 4.502 0 0 0 17.573 9.7c.386.333.734.708 1.04 1.116A5.474 5.474 0 0 1 21.5 10c1.097 0 2.119.321 2.977.875z" fill="#929292" fill-rule="evenodd"/></svg>
